universal/android/music-notes.svg

<svg width="24" height="24" viewBox="0 0 24 24" fill="none" xmlns="http://www.w3.org/2000/svg">
<path d="M21.8718 17.3682C22.411 19.1968 21.1999 21.1859 19.1668 21.811C17.1336 22.436 15.0483 21.4604 14.5091 19.6318C13.97 17.8032 15.181 15.8141 17.2142 15.1891C19.2473 14.564 21.3326 15.5396 21.8718 17.3682Z" fill="black"/>
<path d="M9.49085 17.3682C10.03 19.1968 8.81895 21.1859 6.78581 21.811C4.75267 22.436 2.66739 21.4604 2.1282 19.6318C1.58901 17.8032 2.80009 15.8141 4.83323 15.1891C6.86638 14.564 8.95166 15.5396 9.49085 17.3682Z" fill="black"/>
<path fill-rule="evenodd" clip-rule="evenodd" d="M22.0476 1.78162V18.5H20.0476V4.21839L9.66666 6.2823V18.5H7.66666V4.64079L22.0476 1.78162Z" fill="black"/>
</svg>

<svg xmlns="http://www.w3.org/2000/svg" viewBox="0 0 24 24"><path d="M21.872 17.368c.539 1.829-.672 3.818-2.705 4.443-2.033.625-4.119-.35-4.658-2.18-.539-1.828.672-3.817 2.705-4.442s4.119.35 4.658 2.18zM9.49 17.368c.54 1.829-.671 3.818-2.704 4.443-2.033.625-4.119-.35-4.658-2.18-.539-1.828.672-3.817 2.705-4.442s4.119.35 4.658 2.18z"/><path fill-rule="evenodd" clip-rule="evenodd" d="M22.048 1.782V18.5h-2V4.218L9.667 6.282V18.5h-2V4.64l14.38-2.858z"/></svg>
